JS_100Projects/shopping_cart/imgs/logo.svg

<svg width="205" height="22" viewBox="0 0 205 22" fill="none" xmlns="http://www.w3.org/2000/svg">
<path d="M13.6722 13.716C13.8722 13.716 14.0402 13.788 14.1762 13.932L15.6042 15.456C14.9002 16.352 14.0242 17.032 12.9762 17.496C11.9362 17.96 10.6962 18.192 9.25619 18.192C7.95219 18.192 6.78019 17.972 5.74019 17.532C4.70019 17.084 3.81619 16.464 3.08819 15.672C2.36019 14.88 1.80019 13.94 1.40819 12.852C1.01619 11.764 0.820188 10.576 0.820188 9.288C0.820188 8.424 0.912188 7.604 1.09619 6.828C1.28819 6.044 1.56419 5.324 1.92419 4.668C2.28419 4.012 2.71619 3.42 3.22019 2.892C3.73219 2.364 4.30819 1.916 4.94819 1.548C5.58819 1.172 6.28419 0.887999 7.03619 0.696C7.79619 0.495999 8.60419 0.395998 9.46019 0.395998C10.1002 0.395998 10.7042 0.451999 11.2722 0.563999C11.8482 0.676 12.3842 0.832 12.8802 1.032C13.3762 1.232 13.8322 1.476 14.2482 1.764C14.6722 2.044 15.0522 2.352 15.3882 2.688L14.1762 4.344C14.1042 4.448 14.0122 4.54 13.9002 4.62C13.7882 4.7 13.6362 4.74 13.4442 4.74C13.2522 4.74 13.0562 4.672 12.8562 4.536C12.6642 4.4 12.4242 4.248 12.1362 4.08C11.8562 3.912 11.5002 3.76 11.0682 3.624C10.6442 3.488 10.1042 3.42 9.44819 3.42C8.72019 3.42 8.05219 3.552 7.44419 3.816C6.83619 4.08 6.31219 4.464 5.87219 4.968C5.44019 5.464 5.10419 6.076 4.86419 6.804C4.62419 7.532 4.50419 8.36 4.50419 9.288C4.50419 10.224 4.63219 11.06 4.88819 11.796C5.15219 12.524 5.50819 13.14 5.95619 13.644C6.41219 14.148 6.94019 14.532 7.54019 14.796C8.14819 15.052 8.79619 15.18 9.48419 15.18C9.89219 15.18 10.2602 15.16 10.5882 15.12C10.9242 15.08 11.2322 15.012 11.5122 14.916C11.8002 14.82 12.0682 14.696 12.3162 14.544C12.5722 14.392 12.8282 14.2 13.0842 13.968C13.1722 13.896 13.2642 13.836 13.3602 13.788C13.4562 13.74 13.5602 13.716 13.6722 13.716ZM29.7027 5.436C30.6307 5.436 31.4747 5.584 32.2347 5.88C32.9947 6.176 33.6467 6.6 34.1907 7.152C34.7347 7.696 35.1547 8.36 35.4507 9.144C35.7467 9.928 35.8947 10.812 35.8947 11.796C35.8947 12.78 35.7467 13.668 35.4507 14.46C35.1547 15.244 34.7347 15.912 34.1907 16.464C33.6467 17.016 32.9947 17.44 32.2347 17.736C31.4747 18.032 30.6307 18.18 29.7027 18.18C28.7667 18.18 27.9147 18.032 27.1467 17.736C26.3867 17.44 25.7347 17.016 25.1907 16.464C24.6467 15.912 24.2227 15.244 23.9187 14.46C23.6227 13.668 23.4747 12.78 23.4747 11.796C23.4747 10.812 23.6227 9.928 23.9187 9.144C24.2227 8.36 24.6467 7.696 25.1907 7.152C25.7347 6.6 26.3867 6.176 27.1467 5.88C27.9147 5.584 28.7667 5.436 29.7027 5.436ZM29.7027 15.696C30.6467 15.696 31.3467 15.372 31.8027 14.724C32.2587 14.068 32.4867 13.096 32.4867 11.808C32.4867 10.528 32.2587 9.564 31.8027 8.916C31.3467 8.26 30.6467 7.932 29.7027 7.932C28.7347 7.932 28.0227 8.26 27.5667 8.916C27.1107 9.564 26.8827 10.528 26.8827 11.808C26.8827 13.096 27.1107 14.068 27.5667 14.724C28.0227 15.372 28.7347 15.696 29.7027 15.696ZM45.1743 18V5.628H47.2143C47.6303 5.628 47.9063 5.82 48.0423 6.204L48.2343 7.008C48.4503 6.784 48.6703 6.576 48.8943 6.384C49.1263 6.192 49.3743 6.028 49.6383 5.892C49.9023 5.748 50.1863 5.636 50.4903 5.556C50.8023 5.476 51.1383 5.436 51.4983 5.436C52.2583 5.436 52.8863 5.64 53.3823 6.048C53.8783 6.448 54.2543 6.984 54.5103 7.656C54.7103 7.264 54.9543 6.928 55.2423 6.648C55.5383 6.36 55.8583 6.128 56.2023 5.952C56.5543 5.776 56.9223 5.648 57.3063 5.568C57.6983 5.48 58.0903 5.436 58.4823 5.436C59.1783 5.436 59.7943 5.54 60.3303 5.748C60.8663 5.956 61.3143 6.264 61.6743 6.672C62.0423 7.072 62.3223 7.564 62.5143 8.148C62.7063 8.732 62.8023 9.396 62.8023 10.14V18H59.4903V10.14C59.4903 8.692 58.8703 7.968 57.6303 7.968C57.3503 7.968 57.0903 8.016 56.8503 8.112C56.6183 8.2 56.4103 8.336 56.2263 8.52C56.0503 8.704 55.9103 8.932 55.8063 9.204C55.7103 9.476 55.6623 9.788 55.6623 10.14V18H52.3503V10.14C52.3503 9.356 52.1943 8.8 51.8823 8.472C51.5783 8.136 51.1263 7.968 50.5263 7.968C50.1423 7.968 49.7783 8.06 49.4343 8.244C49.0983 8.42 48.7823 8.668 48.4863 8.988V18H45.1743ZM73.2899 18V8.004L72.3299 7.836C72.0819 7.788 71.8779 7.7 71.7179 7.572C71.5659 7.444 71.4899 7.26 71.4899 7.02V5.7H73.2899V4.884C73.2899 4.18 73.3979 3.544 73.6139 2.976C73.8379 2.4 74.1539 1.916 74.5619 1.524C74.9699 1.124 75.4699 0.815999 76.0619 0.599999C76.6539 0.383999 77.3219 0.275999 78.0659 0.275999C78.3539 0.275999 78.6259 0.295999 78.8819 0.335999C79.1459 0.367999 79.4099 0.419999 79.6739 0.491999L79.6019 2.124C79.5859 2.372 79.4779 2.536 79.2779 2.616C79.0859 2.688 78.8699 2.724 78.6299 2.724C78.2939 2.724 77.9899 2.76 77.7179 2.832C77.4539 2.904 77.2299 3.028 77.0459 3.204C76.8619 3.372 76.7219 3.604 76.6259 3.9C76.5299 4.188 76.4819 4.548 76.4819 4.98V5.7H79.5539V8.004H76.5899V18H73.2899ZM99.7572 5.628L93.0852 21.324C92.9812 21.548 92.8532 21.716 92.7012 21.828C92.5572 21.94 92.3252 21.996 92.0052 21.996H89.5452L91.8852 17.004L86.9172 5.628H89.8212C90.0852 5.628 90.2892 5.688 90.4332 5.808C90.5772 5.928 90.6812 6.068 90.7452 6.228L93.0972 12.144C93.1852 12.376 93.2612 12.612 93.3252 12.852C93.3972 13.084 93.4652 13.316 93.5292 13.548C93.6732 13.076 93.8372 12.604 94.0212 12.132L96.2052 6.228C96.2692 6.052 96.3852 5.908 96.5532 5.796C96.7212 5.684 96.9052 5.628 97.1052 5.628H99.7572Z" fill="#222222"/>
<path d="M123.631 0.587999V18H120.007V10.5H112.339V18H108.715V0.587999H112.339V7.98H120.007V0.587999H123.631ZM139.226 5.436C140.154 5.436 140.998 5.584 141.758 5.88C142.518 6.176 143.17 6.6 143.714 7.152C144.258 7.696 144.678 8.36 144.974 9.144C145.27 9.928 145.418 10.812 145.418 11.796C145.418 12.78 145.27 13.668 144.974 14.46C144.678 15.244 144.258 15.912 143.714 16.464C143.17 17.016 142.518 17.44 141.758 17.736C140.998 18.032 140.154 18.18 139.226 18.18C138.29 18.18 137.438 18.032 136.67 17.736C135.91 17.44 135.258 17.016 134.714 16.464C134.17 15.912 133.746 15.244 133.442 14.46C133.146 13.668 132.998 12.78 132.998 11.796C132.998 10.812 133.146 9.928 133.442 9.144C133.746 8.36 134.17 7.696 134.714 7.152C135.258 6.6 135.91 6.176 136.67 5.88C137.438 5.584 138.29 5.436 139.226 5.436ZM139.226 15.696C140.17 15.696 140.87 15.372 141.326 14.724C141.782 14.068 142.01 13.096 142.01 11.808C142.01 10.528 141.782 9.564 141.326 8.916C140.87 8.26 140.17 7.932 139.226 7.932C138.258 7.932 137.546 8.26 137.09 8.916C136.634 9.564 136.406 10.528 136.406 11.808C136.406 13.096 136.634 14.068 137.09 14.724C137.546 15.372 138.258 15.696 139.226 15.696ZM165.558 5.628V18H163.518C163.094 18 162.822 17.808 162.702 17.424L162.486 16.56C162.238 16.8 161.982 17.02 161.718 17.22C161.454 17.42 161.17 17.592 160.866 17.736C160.57 17.88 160.246 17.992 159.894 18.072C159.55 18.152 159.174 18.192 158.766 18.192C158.094 18.192 157.494 18.076 156.966 17.844C156.446 17.612 156.01 17.288 155.658 16.872C155.306 16.456 155.038 15.96 154.854 15.384C154.67 14.808 154.578 14.176 154.578 13.488V5.628H157.89V13.488C157.89 14.176 158.046 14.712 158.358 15.096C158.678 15.472 159.15 15.66 159.774 15.66C160.238 15.66 160.674 15.56 161.082 15.36C161.49 15.152 161.878 14.872 162.246 14.52V5.628H165.558ZM183.183 8.172C183.095 8.308 183.003 8.408 182.907 8.472C182.819 8.528 182.695 8.556 182.535 8.556C182.375 8.556 182.211 8.516 182.043 8.436C181.875 8.356 181.687 8.272 181.479 8.184C181.271 8.088 181.031 8 180.759 7.92C180.495 7.84 180.187 7.8 179.835 7.8C179.299 7.8 178.883 7.912 178.587 8.136C178.291 8.352 178.143 8.64 178.143 9C178.143 9.248 178.227 9.456 178.395 9.624C178.563 9.792 178.783 9.94 179.055 10.068C179.335 10.188 179.651 10.304 180.003 10.416C180.355 10.52 180.715 10.636 181.083 10.764C181.459 10.892 181.823 11.04 182.175 11.208C182.527 11.376 182.839 11.588 183.111 11.844C183.391 12.092 183.615 12.396 183.783 12.756C183.951 13.108 184.035 13.536 184.035 14.04C184.035 14.64 183.923 15.196 183.699 15.708C183.483 16.212 183.163 16.648 182.739 17.016C182.315 17.384 181.787 17.672 181.155 17.88C180.523 18.088 179.795 18.192 178.971 18.192C178.547 18.192 178.127 18.152 177.711 18.072C177.295 18 176.899 17.896 176.523 17.76C176.147 17.616 175.795 17.452 175.467 17.268C175.139 17.084 174.855 16.884 174.615 16.668L175.383 15.432C175.471 15.288 175.579 15.176 175.707 15.096C175.843 15.016 176.015 14.976 176.223 14.976C176.423 14.976 176.607 15.028 176.775 15.132C176.943 15.228 177.131 15.336 177.339 15.456C177.547 15.568 177.791 15.676 178.071 15.78C178.359 15.876 178.715 15.924 179.139 15.924C179.459 15.924 179.735 15.888 179.967 15.816C180.199 15.744 180.387 15.648 180.531 15.528C180.675 15.4 180.779 15.26 180.843 15.108C180.915 14.948 180.951 14.784 180.951 14.616C180.951 14.344 180.863 14.124 180.687 13.956C180.519 13.78 180.295 13.628 180.015 13.5C179.743 13.372 179.427 13.256 179.067 13.152C178.707 13.048 178.339 12.932 177.963 12.804C177.595 12.676 177.231 12.524 176.871 12.348C176.519 12.172 176.203 11.952 175.923 11.688C175.651 11.416 175.427 11.084 175.251 10.692C175.083 10.3 174.999 9.824 174.999 9.264C174.999 8.752 175.099 8.268 175.299 7.812C175.499 7.348 175.799 6.94 176.199 6.588C176.599 6.236 177.095 5.956 177.687 5.748C178.287 5.54 178.979 5.436 179.763 5.436C180.643 5.436 181.443 5.58 182.163 5.868C182.883 6.156 183.475 6.532 183.939 6.996L183.183 8.172ZM201.157 10.356C201.157 10.012 201.109 9.684 201.013 9.372C200.925 9.06 200.781 8.784 200.581 8.544C200.381 8.304 200.129 8.116 199.825 7.98C199.521 7.836 199.157 7.764 198.733 7.764C197.941 7.764 197.321 7.988 196.873 8.436C196.425 8.884 196.133 9.524 195.997 10.356H201.157ZM195.949 12.324C196.053 13.484 196.381 14.332 196.933 14.868C197.493 15.404 198.221 15.672 199.117 15.672C199.573 15.672 199.965 15.62 200.293 15.516C200.629 15.404 200.921 15.284 201.169 15.156C201.425 15.02 201.653 14.9 201.853 14.796C202.061 14.684 202.265 14.628 202.465 14.628C202.721 14.628 202.921 14.724 203.065 14.916L204.025 16.116C203.673 16.524 203.285 16.864 202.861 17.136C202.437 17.4 201.997 17.612 201.541 17.772C201.085 17.924 200.625 18.028 200.161 18.084C199.697 18.148 199.249 18.18 198.817 18.18C197.953 18.18 197.145 18.04 196.393 17.76C195.649 17.472 194.997 17.052 194.437 16.5C193.885 15.94 193.449 15.248 193.129 14.424C192.809 13.6 192.649 12.644 192.649 11.556C192.649 10.716 192.785 9.924 193.057 9.18C193.337 8.436 193.737 7.788 194.257 7.236C194.777 6.684 195.409 6.248 196.153 5.928C196.897 5.6 197.737 5.436 198.673 5.436C199.465 5.436 200.193 5.564 200.857 5.82C201.529 6.068 202.105 6.432 202.585 6.912C203.073 7.392 203.449 7.984 203.713 8.688C203.985 9.384 204.121 10.18 204.121 11.076C204.121 11.324 204.109 11.528 204.085 11.688C204.061 11.848 204.021 11.976 203.965 12.072C203.909 12.168 203.833 12.236 203.737 12.276C203.641 12.308 203.517 12.324 203.365 12.324H195.949Z" fill="#F09D51"/>
</svg>

<svg width="205" height="22" fill="none" xmlns="http://www.w3.org/2000/svg"><path d="M13.672 13.716c.2 0 .368.072.504.216l1.428 1.524a6.785 6.785 0 0 1-2.628 2.04c-1.04.464-2.28.696-3.72.696-1.304 0-2.476-.22-3.516-.66a7.675 7.675 0 0 1-2.652-1.86c-.728-.792-1.288-1.732-1.68-2.82C1.016 11.764.82 10.576.82 9.288c0-.864.092-1.684.276-2.46a8.835 8.835 0 0 1 .828-2.16A8.438 8.438 0 0 1 3.22 2.892a7.835 7.835 0 0 1 1.728-1.344A8.01 8.01 0 0 1 7.036.696c.76-.2 1.568-.3 2.424-.3.64 0 1.244.056 1.812.168a8.765 8.765 0 0 1 1.608.468c.496.2.952.444 1.368.732.424.28.804.588 1.14.924l-1.212 1.656a1.13 1.13 0 0 1-.276.276c-.112.08-.264.12-.456.12s-.388-.068-.588-.204a9.881 9.881 0 0 0-.72-.456 5.027 5.027 0 0 0-1.068-.456c-.424-.136-.964-.204-1.62-.204-.728 0-1.396.132-2.004.396a4.378 4.378 0 0 0-1.572 1.152c-.432.496-.768 1.108-1.008 1.836s-.36 1.556-.36 2.484c0 .936.128 1.772.384 2.508.264.728.62 1.344 1.068 1.848.456.504.984.888 1.584 1.152a4.958 4.958 0 0 0 1.944.384c.408 0 .776-.02 1.104-.06.336-.04.644-.108.924-.204a3.88 3.88 0 0 0 .804-.372c.256-.152.512-.344.768-.576.088-.072.18-.132.276-.18a.688.688 0 0 1 .312-.072zm16.03-8.28c.929 0 1.773.148 2.533.444.76.296 1.412.72 1.956 1.272a5.541 5.541 0 0 1 1.26 1.992c.296.784.444 1.668.444 2.652 0 .984-.148 1.872-.444 2.664a5.662 5.662 0 0 1-1.26 2.004 5.521 5.521 0 0 1-1.956 1.272c-.76.296-1.604.444-2.532.444-.936 0-1.788-.148-2.556-.444a5.521 5.521 0 0 1-1.956-1.272 5.803 5.803 0 0 1-1.272-2.004c-.296-.792-.444-1.68-.444-2.664 0-.984.148-1.868.444-2.652a5.677 5.677 0 0 1 1.272-1.992 5.521 5.521 0 0 1 1.956-1.272c.768-.296 1.62-.444 2.556-.444zm0 10.26c.945 0 1.645-.324 2.1-.972.457-.656.685-1.628.685-2.916 0-1.28-.228-2.244-.684-2.892-.456-.656-1.156-.984-2.1-.984-.968 0-1.68.328-2.136.984-.456.648-.684 1.612-.684 2.892 0 1.288.228 2.26.684 2.916.456.648 1.168.972 2.136.972zM45.175 18V5.628h2.04c.416 0 .692.192.828.576l.192.804c.216-.224.436-.432.66-.624.232-.192.48-.356.744-.492.264-.144.548-.256.852-.336.312-.08.648-.12 1.008-.12.76 0 1.388.204 1.884.612.496.4.872.936 1.128 1.608a3.8 3.8 0 0 1 .732-1.008c.296-.288.616-.52.96-.696a4.52 4.52 0 0 1 1.104-.384 5.354 5.354 0 0 1 1.176-.132c.696 0 1.312.104 1.848.312.536.208.984.516 1.344.924.368.4.648.892.84 1.476.192.584.288 1.248.288 1.992V18H59.49v-7.86c0-1.448-.62-2.172-1.86-2.172-.28 0-.54.048-.78.144-.232.088-.44.224-.624.408a2.017 2.017 0 0 0-.42.684 2.806 2.806 0 0 0-.144.936V18H52.35v-7.86c0-.784-.156-1.34-.468-1.668-.304-.336-.756-.504-1.356-.504-.384 0-.748.092-1.092.276a3.53 3.53 0 0 0-.948.744V18h-3.312zm28.116 0V8.004l-.96-.168a1.383 1.383 0 0 1-.612-.264c-.152-.128-.228-.312-.228-.552V5.7h1.8v-.816c0-.704.108-1.34.324-1.908.224-.576.54-1.06.948-1.452.408-.4.908-.708 1.5-.924.592-.216 1.26-.324 2.004-.324.288 0 .56.02.816.06.264.032.528.084.792.156l-.072 1.632c-.016.248-.124.412-.324.492a1.835 1.835 0 0 1-.648.108c-.336 0-.64.036-.912.108a1.54 1.54 0 0 0-.672.372c-.184.168-.324.4-.42.696-.096.288-.144.648-.144 1.08v.72h3.072v2.304H76.59V18h-3.3zM99.757 5.628l-6.672 15.696a1.276 1.276 0 0 1-.384.504c-.144.112-.376.168-.696.168h-2.46l2.34-4.992-4.968-11.376h2.904c.264 0 .468.06.612.18.144.12.248.26.312.42l2.352 5.916c.088.232.164.468.228.708.072.232.14.464.204.696.144-.472.308-.944.492-1.416l2.184-5.904a.87.87 0 0 1 .348-.432.975.975 0 0 1 .552-.168h2.652z" fill="#222"/><path d="M123.631.588V18h-3.624v-7.5h-7.668V18h-3.624V.588h3.624V7.98h7.668V.588h3.624zm15.595 4.848c.928 0 1.772.148 2.532.444.76.296 1.412.72 1.956 1.272a5.541 5.541 0 0 1 1.26 1.992c.296.784.444 1.668.444 2.652 0 .984-.148 1.872-.444 2.664a5.662 5.662 0 0 1-1.26 2.004 5.521 5.521 0 0 1-1.956 1.272c-.76.296-1.604.444-2.532.444-.936 0-1.788-.148-2.556-.444a5.521 5.521 0 0 1-1.956-1.272 5.803 5.803 0 0 1-1.272-2.004c-.296-.792-.444-1.68-.444-2.664 0-.984.148-1.868.444-2.652a5.677 5.677 0 0 1 1.272-1.992 5.521 5.521 0 0 1 1.956-1.272c.768-.296 1.62-.444 2.556-.444zm0 10.26c.944 0 1.644-.324 2.1-.972.456-.656.684-1.628.684-2.916 0-1.28-.228-2.244-.684-2.892-.456-.656-1.156-.984-2.1-.984-.968 0-1.68.328-2.136.984-.456.648-.684 1.612-.684 2.892 0 1.288.228 2.26.684 2.916.456.648 1.168.972 2.136.972zm26.332-10.068V18h-2.04c-.424 0-.696-.192-.816-.576l-.216-.864c-.248.24-.504.46-.768.66a4.832 4.832 0 0 1-1.824.852c-.344.08-.72.12-1.128.12-.672 0-1.272-.116-1.8-.348a3.617 3.617 0 0 1-1.308-.972 4.298 4.298 0 0 1-.804-1.488 6.204 6.204 0 0 1-.276-1.896v-7.86h3.312v7.86c0 .688.156 1.224.468 1.608.32.376.792.564 1.416.564.464 0 .9-.1 1.308-.3a4.922 4.922 0 0 0 1.164-.84V5.628h3.312zm17.625 2.544c-.088.136-.18.236-.276.3a.692.692 0 0 1-.372.084c-.16 0-.324-.04-.492-.12a14.08 14.08 0 0 0-.564-.252 5.282 5.282 0 0 0-.72-.264 3.197 3.197 0 0 0-.924-.12c-.536 0-.952.112-1.248.336a1.017 1.017 0 0 0-.444.864c0 .248.084.456.252.624.168.168.388.316.66.444.28.12.596.236.948.348.352.104.712.22 1.08.348.376.128.74.276 1.092.444.352.168.664.38.936.636.28.248.504.552.672.912.168.352.252.78.252 1.284 0 .6-.112 1.156-.336 1.668-.216.504-.536.94-.96 1.308-.424.368-.952.656-1.584.864-.632.208-1.36.312-2.184.312-.424 0-.844-.04-1.26-.12a6.99 6.99 0 0 1-1.188-.312 8.011 8.011 0 0 1-1.056-.492 4.719 4.719 0 0 1-.852-.6l.768-1.236c.088-.144.196-.256.324-.336.136-.08.308-.12.516-.12.2 0 .384.052.552.156l.564.324c.208.112.452.22.732.324.288.096.644.144 1.068.144.32 0 .596-.036.828-.108.232-.072.42-.168.564-.288.144-.128.248-.268.312-.42.072-.16.108-.324.108-.492a.87.87 0 0 0-.264-.66 2.154 2.154 0 0 0-.672-.456 6.422 6.422 0 0 0-.948-.348c-.36-.104-.728-.22-1.104-.348a9.861 9.861 0 0 1-1.092-.456 3.945 3.945 0 0 1-.948-.66 3.305 3.305 0 0 1-.672-.996c-.168-.392-.252-.868-.252-1.428 0-.512.1-.996.3-1.452.2-.464.5-.872.9-1.224s.896-.632 1.488-.84c.6-.208 1.292-.312 2.076-.312.88 0 1.68.144 2.4.432.72.288 1.312.664 1.776 1.128l-.756 1.176zm17.974 2.184c0-.344-.048-.672-.144-.984a2.217 2.217 0 0 0-.432-.828c-.2-.24-.452-.428-.756-.564-.304-.144-.668-.216-1.092-.216-.792 0-1.412.224-1.86.672-.448.448-.74 1.088-.876 1.92h5.16zm-5.208 1.968c.104 1.16.432 2.008.984 2.544.56.536 1.288.804 2.184.804.456 0 .848-.052 1.176-.156.336-.112.628-.232.876-.36.256-.136.484-.256.684-.36.208-.112.412-.168.612-.168.256 0 .456.096.6.288l.96 1.2c-.352.408-.74.748-1.164 1.02a6.672 6.672 0 0 1-1.32.636 7.012 7.012 0 0 1-1.38.312 9.839 9.839 0 0 1-1.344.096c-.864 0-1.672-.14-2.424-.42a5.672 5.672 0 0 1-1.956-1.26c-.552-.56-.988-1.252-1.308-2.076-.32-.824-.48-1.78-.48-2.868 0-.84.136-1.632.408-2.376.28-.744.68-1.392 1.2-1.944a5.617 5.617 0 0 1 1.896-1.308c.744-.328 1.584-.492 2.52-.492.792 0 1.52.128 2.184.384a4.718 4.718 0 0 1 1.728 1.092c.488.48.864 1.072 1.128 1.776.272.696.408 1.492.408 2.388 0 .248-.012.452-.036.612-.024.16-.064.288-.12.384a.469.469 0 0 1-.228.204 1.2 1.2 0 0 1-.372.048h-7.416z" fill="#F09D51"/></svg>
